svg/u23ea.svg

<svg viewBox="0 0 128 128" xmlns="http://www.w3.org/2000/svg">
  <g>
    <path d="M116.46,4h-104c-4.42,0-8,3.58-8,8v104c0,4.42,3.58,8,8,8h104c4.42,0,8-3.58,8-8V12 C124.46,7.58,120.88,4,116.46,4z" fill="#F77E00"/>
    <path d="M110.16,4h-98.2c-4.13,0.03-7.47,3.37-7.5,7.5v97.9c-0.01,4.14,3.34,7.49,7.48,7.5 c0.01,0,0.01,0,0.02,0h98.1c4.14,0.01,7.49-3.34,7.5-7.48c0-0.01,0-0.01,0-0.02V11.5c0.09-4.05-3.13-7.41-7.18-7.5 C110.31,4,110.23,4,110.16,4z" fill="#FF9800"/>
    <path d="M40.16,12.9c0-2.3-1.6-3-10.8-2.7c-7.7,0.3-11.5,1.2-13.8,4 s-2.9,8.5-3,15.3c0,4.8,0,9.3,2.5,9.3c3.4,0,3.4-7.9,6.2-12.3C26.66,17.8,40.16,15.9,40.16,12.9z" opacity="0.75" fill="#FFBD52" enable-background="new "/>
    <path d="M104.46,64V38.3c0-1.8-1.7-2.9-3-2l-37,24.4V38.3c0.13-1.13-0.69-2.15-1.82-2.28 c-0.45-0.05-0.9,0.05-1.28,0.28L21.46,62c-1.13,0.82-1.39,2.4-0.57,3.53c0.16,0.22,0.35,0.41,0.57,0.57l39.8,25.7 c0.98,0.58,2.24,0.26,2.82-0.72c0.23-0.39,0.33-0.84,0.28-1.28V67.3l37,24.4c1.4,0.9,3-0.2,3-2L104.46,64z" fill="#FAFAFA"/>
  </g>
</svg>

<svg viewBox="0 0 128 128" xmlns="http://www.w3.org/2000/svg">
  <defs/>
  <path d="M116.46,4 L12.46,4 C8.04,4 4.46,7.58 4.46,12 L4.46,116 C4.46,120.42 8.04,124 12.46,124 L116.46,124 C120.88,124 124.46,120.42 124.46,116 L124.46,12 C124.46,7.58 120.88,4 116.46,4 Z" fill="#F77E00"/>
  <path d="M110.16,4 L11.96,4 C7.83,4.03 4.49,7.37 4.46,11.5 L4.46,109.4 C4.45,113.54 7.8,116.89 11.94,116.9 C11.95,116.9 11.95,116.9 11.96,116.9 L110.06,116.9 C114.2,116.91 117.55,113.56 117.56,109.42 C117.56,109.41 117.56,109.41 117.56,109.4 L117.56,11.5 C117.65,7.45 114.43,4.09 110.38,4 C110.31,4 110.23,4 110.16,4 Z" fill="#FF9800"/>
  <path d="M40.16,12.9 C40.16,10.6 38.56,9.9 29.36,10.2 C21.66,10.5 17.86,11.4 15.56,14.2 C13.26,17 12.66,22.7 12.56,29.5 C12.56,34.3 12.56,38.8 15.06,38.8 C18.46,38.8 18.46,30.9 21.26,26.5 C26.66,17.8 40.16,15.9 40.16,12.9 Z" fill="#FFBD52" opacity="0.75"/>
  <path d="M104.46,64 L104.46,38.3 C104.46,36.5 102.76,35.4 101.46,36.3 L64.46,60.7 L64.46,38.3 C64.59,37.17 63.77,36.15 62.64,36.02 C62.19,35.97 61.74,36.07 61.36,36.3 L21.46,62 C20.33,62.82 20.07,64.4 20.89,65.53 C21.05,65.75 21.24,65.94 21.46,66.1 L61.26,91.8 C62.24,92.38 63.5,92.06 64.08,91.08 C64.31,90.69 64.41,90.24 64.36,89.8 L64.36,67.3 L101.36,91.7 C102.76,92.6 104.36,91.5 104.36,89.7 L104.46,64 Z" fill="#FAFAFA"/>
</svg>
